X: 24
T: Rakish Paddy
Z: Sean Perry
S: https://thesession.org/tunes/86#setting50799
R: reel
M: 4/4
L: 1/8
K: Dmix
AB |: c2 AB c2 AB | cBAG EG G/G/G | Add^c defe | d=cAG FGAB|
c2 AB cBAB | cBAG EFGE | DEFG ABcA |1 dcAG FGAB :|2 dc AGFD D2 ||
|: eg ~g2 ag ~g2 | eg ~g2 ed^cd | ea a/a/a ba a/a/a | ea a/a/a ed^cd |
eg ~g2 ag ~g2 | ef{g}fe defg | afge fde^c | dBAG FD D2 :|

